src/main/resources/icons/AllIcons/xml/browsers/edge.svg

<svg width="16" height="16" viewBox="0 0 16 16" fill="none" xmlns="http://www.w3.org/2000/svg">
<path d="M13.6359 11.4195C13.4492 11.5171 13.2567 11.6031 13.0595 11.6771C12.4317 11.912 11.7666 12.0316 11.0963 12.0303C8.50867 12.0303 6.25459 10.2504 6.25459 7.9662C6.25791 7.65984 6.34292 7.35992 6.50086 7.09739C6.6588 6.83486 6.88395 6.61923 7.15305 6.47278C4.81257 6.57121 4.21105 9.01012 4.21105 10.439C4.21105 14.4791 7.93449 14.8887 8.7367 14.8887C9.16925 14.8887 9.82164 14.7629 10.2132 14.6393L10.2848 14.6152C11.7915 14.0944 13.0759 13.0761 13.9268 11.7279C13.9528 11.6869 13.9645 11.6383 13.9598 11.5899C13.9552 11.5415 13.9346 11.496 13.9012 11.4606C13.8678 11.4252 13.8236 11.402 13.7756 11.3945C13.7275 11.3871 13.6784 11.3959 13.6359 11.4195Z" fill="url(#paint0_linear)"/>
<path opacity="0.35" d="M13.6359 11.4195C13.4492 11.5171 13.2567 11.6031 13.0595 11.6771C12.4317 11.912 11.7666 12.0316 11.0963 12.0303C8.50867 12.0303 6.25459 10.2504 6.25459 7.9662C6.25791 7.65984 6.34292 7.35992 6.50086 7.09739C6.6588 6.83486 6.88395 6.61923 7.15305 6.47278C4.81257 6.57121 4.21105 9.01012 4.21105 10.439C4.21105 14.4791 7.93449 14.8887 8.7367 14.8887C9.16925 14.8887 9.82164 14.7629 10.2132 14.6393L10.2848 14.6152C11.7915 14.0944 13.0759 13.0761 13.9268 11.7279C13.9528 11.6869 13.9645 11.6383 13.9598 11.5899C13.9552 11.5415 13.9346 11.496 13.9012 11.4606C13.8678 11.4252 13.8236 11.402 13.7756 11.3945C13.7275 11.3871 13.6784 11.3959 13.6359 11.4195Z" fill="url(#paint1_radial)"/>
<path d="M6.78174 14.2018C6.294 13.8991 5.8713 13.5024 5.53823 13.0349C5.1586 12.5148 4.89737 11.9179 4.77285 11.2861C4.64833 10.6544 4.66353 10.003 4.8174 9.37775C4.97126 8.75249 5.26007 8.16846 5.66355 7.66663C6.06703 7.16481 6.57541 6.75733 7.15305 6.47278C7.32366 6.3924 7.61513 6.24694 8.00284 6.25405C8.27599 6.25604 8.54497 6.32125 8.7887 6.44459C9.03244 6.56793 9.24429 6.74603 9.40767 6.96494C9.6285 7.25979 9.75026 7.61701 9.75547 7.98535C9.75547 7.97386 11.093 3.63249 5.38074 3.63249C2.98011 3.63249 1.00601 5.91063 1.00601 7.90933C0.996542 8.96662 1.22276 10.0127 1.66824 10.9716C2.39626 12.525 3.66938 13.7569 5.24583 14.4334C6.82228 15.1099 8.59229 15.184 10.2197 14.6415C9.6499 14.8212 9.04788 14.8751 8.45518 14.7996C7.86249 14.724 7.29323 14.5208 6.78667 14.204L6.78174 14.2018Z" fill="url(#paint2_linear)"/>
<path opacity="0.41" d="M6.78174 14.2018C6.294 13.8991 5.8713 13.5024 5.53823 13.0349C5.1586 12.5148 4.89737 11.9179 4.77285 11.2861C4.64833 10.6544 4.66353 10.003 4.8174 9.37775C4.97126 8.75249 5.26007 8.16846 5.66355 7.66663C6.06703 7.16481 6.57541 6.75733 7.15305 6.47278C7.32366 6.3924 7.61513 6.24694 8.00284 6.25405C8.27599 6.25604 8.54497 6.32125 8.7887 6.44459C9.03244 6.56793 9.24429 6.74603 9.40767 6.96494C9.6285 7.25979 9.75026 7.61701 9.75547 7.98535C9.75547 7.97386 11.093 3.63249 5.38074 3.63249C2.98011 3.63249 1.00601 5.91063 1.00601 7.90933C0.996542 8.96662 1.22276 10.0127 1.66824 10.9716C2.39626 12.525 3.66938 13.7569 5.24583 14.4334C6.82228 15.1099 8.59229 15.184 10.2197 14.6415C9.6499 14.8212 9.04788 14.8751 8.45518 14.7996C7.86249 14.724 7.29323 14.5208 6.78667 14.204L6.78174 14.2018Z" fill="url(#paint3_radial)"/>
<path d="M9.33003 9.14027C9.28573 9.19769 9.14957 9.27698 9.14957 9.44978C9.14957 9.59251 9.24253 9.72977 9.40768 9.84515C10.194 10.392 11.6765 10.3198 11.6803 10.3198C12.263 10.3184 12.8347 10.1607 13.3356 9.86319C13.841 9.5681 14.2605 9.14599 14.5524 8.63874C14.8443 8.13149 14.9985 7.55674 14.9997 6.9715C15.0139 5.74603 14.5622 4.93124 14.3796 4.57032C13.2208 2.30367 10.7195 1 7.99956 1C6.16009 0.999818 4.39448 1.72374 3.0846 3.0152C1.77472 4.30666 1.02587 6.06184 1 7.90113C1.02625 5.90297 3.01237 4.28925 5.37473 4.28925C5.56612 4.28925 6.65762 4.30784 7.67146 4.83992C8.565 5.3091 9.03309 5.87563 9.35846 6.43724C9.69641 7.02072 9.75656 7.75786 9.75656 8.05151C9.75656 8.34516 9.60673 8.78045 9.33003 9.14027Z" fill="url(#paint4_radial)"/>
<path d="M9.33003 9.14027C9.28573 9.19769 9.14957 9.27698 9.14957 9.44978C9.14957 9.59251 9.24253 9.72977 9.40768 9.84515C10.194 10.392 11.6765 10.3198 11.6803 10.3198C12.263 10.3184 12.8347 10.1607 13.3356 9.86319C13.841 9.5681 14.2605 9.14599 14.5524 8.63874C14.8443 8.13149 14.9985 7.55674 14.9997 6.9715C15.0139 5.74603 14.5622 4.93124 14.3796 4.57032C13.2208 2.30367 10.7195 1 7.99956 1C6.16009 0.999818 4.39448 1.72374 3.0846 3.0152C1.77472 4.30666 1.02587 6.06184 1 7.90113C1.02625 5.90297 3.01237 4.28925 5.37473 4.28925C5.56612 4.28925 6.65762 4.30784 7.67146 4.83992C8.565 5.3091 9.03309 5.87563 9.35846 6.43724C9.69641 7.02072 9.75656 7.75786 9.75656 8.05151C9.75656 8.34516 9.60673 8.78045 9.33003 9.14027Z" fill="url(#paint5_radial)"/>
<defs>
<linearGradient id="paint0_linear" x1="4.21105" y1="10.6818" x2="13.9634" y2="10.6818" gradientUnits="userSpaceOnUse">
<stop offset="0" stop-color="#0C59A4"/>
<stop offset="1" stop-color="#114A8B"/>
</linearGradient>
<radialGradient id="paint1_radial" cx="0" cy="0" r="1" gradientUnits="userSpaceOnUse" gradientTransform="translate(9.59743 10.7587) scale(5.21577 4.95498)">
<stop offset="0.72" stop-opacity="0"/>
<stop offset="0.95" stop-opacity="0.53"/>
<stop offset="1"/>
</radialGradient>
<linearGradient id="paint2_linear" x1="9.35244" y1="6.45146" x2="3.26118" y2="13.0863" gradientUnits="userSpaceOnUse">
<stop offset="0" stop-color="#1B9DE2"/>
<stop offset="0.16" stop-color="#1595DF"/>
<stop offset="0.67" stop-color="#0680D7"/>
<stop offset="1" stop-color="#0078D4"/>
</linearGradient>
<radialGradient id="paint3_radial" cx="0" cy="0" r="1" gradientUnits="userSpaceOnUse" gradientTransform="translate(4.86039 11.8826) rotate(-81.3844) scale(7.84312 6.33646)">
<stop offset="0.76" stop-opacity="0"/>
<stop offset="0.95" stop-opacity="0.5"/>
<stop offset="1"/>
</radialGradient>
<radialGradient id="paint4_radial" cx="0" cy="0" r="1" gradientUnits="userSpaceOnUse" gradientTransform="translate(2.41427 3.59076) rotate(92.2906) scale(11.0786 23.595)">
<stop offset="0" stop-color="#35C1F1"/>
<stop offset="0.11" stop-color="#34C1ED"/>
<stop offset="0.23" stop-color="#2FC2DF"/>
<stop offset="0.31" stop-color="#2BC3D2"/>
<stop offset="0.67" stop-color="#36C752"/>
</radialGradient>
<radialGradient id="paint5_radial" cx="0" cy="0" r="1" gradientUnits="userSpaceOnUse" gradientTransform="translate(14.1281 5.23288) rotate(73.7398) scale(5.32295 4.32862)">
<stop offset="0" stop-color="#66EB6E"/>
<stop offset="1" stop-color="#66EB6E" stop-opacity="0"/>
</radialGradient>
</defs>
</svg>

<svg width="16" height="16" viewBox="0 0 16 16" fill="none" xmlns="http://www.w3.org/2000/svg"><rect id="frame" width="16" height="16" fill="none"/><path d="M13.636 11.42c-.187.097-.38.183-.576.257a5.571 5.571 0 0 1-1.964.353c-2.587 0-4.841-1.78-4.841-4.064a1.722 1.722 0 0 1 .898-1.493c-2.34.098-2.942 2.537-2.942 3.966 0 4.04 3.723 4.45 4.526 4.45.432 0 1.085-.126 1.476-.25l.072-.024a7.018 7.018 0 0 0 3.642-2.887.218.218 0 0 0-.291-.309z" fill="url(#paint0_linear)"/><path opacity=".35" d="M13.636 11.42c-.187.097-.38.183-.576.257a5.571 5.571 0 0 1-1.964.353c-2.587 0-4.841-1.78-4.841-4.064a1.722 1.722 0 0 1 .898-1.493c-2.34.098-2.942 2.537-2.942 3.966 0 4.04 3.723 4.45 4.526 4.45.432 0 1.085-.126 1.476-.25l.072-.024a7.018 7.018 0 0 0 3.642-2.887.218.218 0 0 0-.291-.309z" fill="url(#paint1_radial)"/><path d="M6.782 14.202c-.488-.303-.91-.7-1.244-1.167a4.414 4.414 0 0 1 1.615-6.562c.17-.08.462-.226.85-.219a1.769 1.769 0 0 1 1.405.71c.22.296.342.653.347 1.021 0-.011 1.338-4.353-4.374-4.353-2.4 0-4.375 2.279-4.375 4.277a7 7 0 0 0 9.214 6.732 4.131 4.131 0 0 1-3.433-.437l-.005-.002z" fill="url(#paint2_linear)"/><path opacity=".41" d="M6.782 14.202c-.488-.303-.91-.7-1.244-1.167a4.414 4.414 0 0 1 1.615-6.562c.17-.08.462-.226.85-.219a1.769 1.769 0 0 1 1.405.71c.22.296.342.653.347 1.021 0-.011 1.338-4.353-4.374-4.353-2.4 0-4.375 2.279-4.375 4.277a7 7 0 0 0 9.214 6.732 4.131 4.131 0 0 1-3.433-.437l-.005-.002z" fill="url(#paint3_radial)"/><path d="M9.33 9.14c-.044.058-.18.137-.18.31 0 .143.093.28.258.395.786.547 2.269.475 2.272.475a3.257 3.257 0 0 0 1.656-.457A3.357 3.357 0 0 0 15 6.972c.014-1.226-.438-2.04-.62-2.402C13.22 2.304 10.72 1 8 1a7 7 0 0 0-7 6.901C1.026 5.903 3.012 4.29 5.375 4.29c.191 0 1.283.019 2.296.55.894.47 1.362 1.037 1.687 1.598.338.584.399 1.32.399 1.615 0 .293-.15.728-.427 1.088z" fill="url(#paint4_radial)"/><path d="M9.33 9.14c-.044.058-.18.137-.18.31 0 .143.093.28.258.395.786.547 2.269.475 2.272.475a3.257 3.257 0 0 0 1.656-.457A3.357 3.357 0 0 0 15 6.972c.014-1.226-.438-2.04-.62-2.402C13.22 2.304 10.72 1 8 1a7 7 0 0 0-7 6.901C1.026 5.903 3.012 4.29 5.375 4.29c.191 0 1.283.019 2.296.55.894.47 1.362 1.037 1.687 1.598.338.584.399 1.32.399 1.615 0 .293-.15.728-.427 1.088z" fill="url(#paint5_radial)"/><defs><linearGradient id="paint0_linear" x1="4.211" y1="10.682" x2="13.963" y2="10.682" gradientUnits="userSpaceOnUse"><stop offset="0" stop-color="#0C59A4"/><stop offset="1" stop-color="#114A8B"/></linearGradient><radialGradient id="paint1_radial" cx="0" cy="0" r="1" gradientUnits="userSpaceOnUse" gradientTransform="matrix(5.21577 0 0 4.95498 9.597 10.759)"><stop offset=".72" stop-opacity="0"/><stop offset=".95" stop-opacity=".53"/><stop offset="1"/></radialGradient><linearGradient id="paint2_linear" x1="9.352" y1="6.451" x2="3.261" y2="13.086" gradientUnits="userSpaceOnUse"><stop offset="0" stop-color="#1B9DE2"/><stop offset=".16" stop-color="#1595DF"/><stop offset=".67" stop-color="#0680D7"/><stop offset="1" stop-color="#0078D4"/></linearGradient><radialGradient id="paint3_radial" cx="0" cy="0" r="1" gradientUnits="userSpaceOnUse" gradientTransform="rotate(-81.384 9.34 3.115) scale(7.84312 6.33646)"><stop offset=".76" stop-opacity="0"/><stop offset=".95" stop-opacity=".5"/><stop offset="1"/></radialGradient><radialGradient id="paint4_radial" cx="0" cy="0" r="1" gradientUnits="userSpaceOnUse" gradientTransform="matrix(-.44279 11.06975 -23.57615 -.94304 2.414 3.59)"><stop offset="0" stop-color="#35C1F1"/><stop offset=".11" stop-color="#34C1ED"/><stop offset=".23" stop-color="#2FC2DF"/><stop offset=".31" stop-color="#2BC3D2"/><stop offset=".67" stop-color="#36C752"/></radialGradient><radialGradient id="paint5_radial" cx="0" cy="0" r="1" gradientUnits="userSpaceOnUse" gradientTransform="matrix(1.49043 5.11003 -4.15548 1.21201 14.128 5.233)"><stop offset="0" stop-color="#66EB6E"/><stop offset="1" stop-color="#66EB6E" stop-opacity="0"/></radialGradient></defs></svg>
